src/assets/icons/explore-bold.svg

<svg width="20" height="21" viewBox="0 0 20 21" fill="none" xmlns="http://www.w3.org/2000/svg">
<path d="M18.5848 8.23606C19.2448 8.23606 19.7848 7.69806 19.7848 7.03606C19.7848 6.37406 19.2448 5.83605 18.5848 5.83605H15.3648L15.6748 2.28905C15.7018 1.97105 15.6048 1.65905 15.3978 1.41405C15.1918 1.16905 14.9028 1.01805 14.5758 0.989049C13.9258 0.954049 13.3408 1.42105 13.2828 2.08205L12.9568 5.83605H7.89981L8.20781 2.29105C8.26781 1.63305 7.77781 1.04905 7.11081 0.989049C6.44581 0.939049 5.87581 1.41906 5.81781 2.08106L5.49281 5.83506H2.16281C1.49981 5.83506 0.962814 6.37305 0.962814 7.03505C0.962814 7.69705 1.50081 8.23505 2.16281 8.23505H5.28482L4.84482 13.2991H1.41582C0.753817 13.2991 0.21582 13.8391 0.21582 14.4991C0.21582 15.1591 0.753817 15.7011 1.41582 15.7011H4.63582L4.32582 19.2491C4.26882 19.9061 4.75782 20.4891 5.41582 20.5491L5.52182 20.5541C6.14782 20.5541 6.66181 20.0821 6.71681 19.4561L7.04382 15.7031H12.0998L11.7918 19.2471C11.7318 19.9051 12.2218 20.4891 12.8818 20.5491L12.9878 20.5541C13.6048 20.5541 14.1298 20.0721 14.1828 19.4561L14.5078 15.7031H17.8378C18.4978 15.7031 19.0378 15.1631 19.0378 14.5031C19.0378 13.8431 18.4978 13.3011 17.8378 13.3011H14.7158L15.1558 8.23705H18.5858L18.5848 8.23606ZM12.7468 8.23606L12.3068 13.2991H7.25282L7.69281 8.23705H12.7478L12.7468 8.23606Z" fill="black"/>
</svg>

<svg width="20" height="21" fill="none" xmlns="http://www.w3.org/2000/svg"><path d="M18.585 8.236c.66 0 1.2-.538 1.2-1.2 0-.662-.54-1.2-1.2-1.2h-3.22l.31-3.547a1.2 1.2 0 0 0-1.099-1.3c-.65-.035-1.235.432-1.293 1.093l-.326 3.754H7.9l.308-3.545A1.203 1.203 0 0 0 7.11.989a1.196 1.196 0 0 0-1.293 1.092l-.325 3.754h-3.33a1.2 1.2 0 0 0 0 2.4h3.122l-.44 5.064h-3.43a1.202 1.202 0 0 0 0 2.402h3.22l-.31 3.548a1.205 1.205 0 0 0 1.09 1.3l.107.005c.626 0 1.14-.472 1.195-1.098l.327-3.753H12.1l-.308 3.544c-.06.658.43 1.242 1.09 1.302l.106.005c.617 0 1.142-.482 1.195-1.098l.325-3.753h3.33c.66 0 1.2-.54 1.2-1.2 0-.66-.54-1.202-1.2-1.202h-3.122l.44-5.064h3.43-.001zm-5.838 0-.44 5.063H7.253l.44-5.062h5.055-.001z" fill="#000"/></svg>
